**kern	**silbe	**harmony	**phrase	**leadinstrument	**rhyme	**timestamp	**harte
*ICvox	*	*M4/4	*	*	*	*	*M4/4
*VRlead	*	*	*	*	*	*	*
*Hstimme	*	*	*	*	*	*	*
*f:	*	*f:	*f:	*f:	*	*f:	*f:
*M4/4	*	*	*	*	*	*	*
*clefG2	*	*	*	*	*	*	*
r;	.	1r;	.	r	.	0	N.C.
=1	=1	=1	=1	=1	=1	=1	=1
*>Letter>A	*>Letter>A	*>Letter>A	*>Letter>A	*>Letter>A	*>Letter>A	*>Letter>A	*>Letter>A
*>Label>Intro	*>Label>Intro	*>Label>Intro	*>Label>Intro	*>Label>Intro	*>Label>Intro	*>Label>Intro	*>Label>Intro
1r	.	1Fm	newline	r	.	0.023	F:min
=2	=2	=2	=2	=2	=2	=2	=2
1r	.	1Fm	.	r	.	1.782	F:min
=3	=3	=3	=3	=3	=3	=3	=3
1r	.	1E-M	.	r	.	3.541	E-:maj
=4	=4	=4	=4	=4	=4	=4	=4
1r	.	1E-M	.	r	.	5.3	E-:maj
=5	=5	=5	=5	=5	=5	=5	=5
1r	.	1D-M	newline	r	.	7.059	D-:maj
=6	=6	=6	=6	=6	=6	=6	=6
1r	.	1D-M	.	r	.	8.809	D-:maj
=7	=7	=7	=7	=7	=7	=7	=7
1r	.	1Cm	.	r	.	10.558	C:sus4
=8	=8	=8	=8	=8	=8	=8	=8
1r	.	1CM	.	r	.	12.308	C:maj
=9	=9	=9	=9	=9	=9	=9	=9
1r	.	1Fm	newline	r	.	14.057	F:min
=10	=10	=10	=10	=10	=10	=10	=10
1r	.	1Fmm	.	r	.	15.815	F:min7
=11	=11	=11	=11	=11	=11	=11	=11
1r	.	1Fm	.	r	.	17.574	F:min6
=12	=12	=12	=12	=12	=12	=12	=12
1r	.	1Fm	.	r	.	19.332	F:min(b13)
=13	=13	=13	=13	=13	=13	=13	=13
1r	.	1Fm	newline	r	.	21.09	F:min
=14	=14	=14	=14	=14	=14	=14	=14
1r	.	1Fmm	.	r	.	22.849	F:min7
=15	=15	=15	=15	=15	=15	=15	=15
1r	.	1Fm	.	r	.	24.607	F:min6
=16	=16	=16	=16	=16	=16	=16	=16
2r	.	1Fm	.	r	.	26.366	F:min(b13)
4r	.	.	.	.	.	.	.
8r	.	.	.	.	.	.	.
8F	Hu-	.	.	.	.	.	.
=17	=17	=17	=17	=17	=17	=17	=17
*>Letter>B	*>Letter>B	*>Letter>B	*>Letter>B	*>Letter>B	*>Letter>B	*>Letter>B	*>Letter>B
*>Label>Verse	*>Label>Verse	*>Label>Verse	*>Label>Verse	*>Label>Verse	*>Label>Verse	*>Label>Verse	*>Label>Verse
8F	-mi-	1Fm	newline	voice	.	28.125	F:min
8F	-di-	.	.	.	.	.	.
8F	-ty's	.	.	.	.	.	.
[8A-	ri-	.	.	.	.	.	.
8A-]	_	.	.	.	.	.	.
4.F	-sing	.	.	.	.	.	.
=18	=18	=18	=18	=18	=18	=18	=18
2r	.	1Fm	.	voice	.	29.899	F:min
4r	.	.	.	.	.	.	.
8r	.	.	.	.	.	.	.
16F	Ba-	.	.	.	.	.	.
16F	-ro-	.	.	.	.	.	.
=19	=19	=19	=19	=19	=19	=19	=19
8c	-me-	1Fm	.	voice	.	31.674	F:min
8B-	-ter's	.	.	.	.	.	.
8A-	get-	.	.	.	.	.	.
8B-	-ting	.	.	.	.	.	.
8B-	low	.	.	.	A	.	.
[8A-	_	.	.	.	.	.	.
4A-_	_	.	.	.	.	.	.
=20	=20	=20	=20	=20	=20	=20	=20
2A-]	_	1Fm	.	voice	.	33.449	F:min
4r	.	.	.	.	.	.	.
8r	.	.	.	.	.	.	.
8F	Ac-	.	.	.	.	.	.
=21	=21	=21	=21	=21	=21	=21	=21
8F	-cor-	1Fm	newline	voice	.	35.224	F:min
8F	-ding	.	.	.	.	.	.
8F	to	.	.	.	.	.	.
[8F	all	.	.	.	.	.	.
8F]	_	.	.	.	.	.	.
4A-	sour-	.	.	.	.	.	.
[8F	-ces	.	.	.	.	.	.
=22	=22	=22	=22	=22	=22	=22	=22
2F]	_	1Fm	.	voice	.	36.988	F:min
4r	.	.	.	.	.	.	.
8r	.	.	.	.	.	.	.
8B-	the	.	.	.	.	.	.
=23	=23	=23	=23	=23	=23	=23	=23
4c	street's	1Cm	.	voice	.	38.752	C:sus4
8c	the	.	.	.	.	.	.
[8e-	place	.	.	.	.	.	.
8e-]	_	.	.	.	.	.	.
4c	to	.	.	.	.	.	.
[8B-	go	.	.	.	A	.	.
=24	=24	=24	=24	=24	=24	=24	=24
4B-]	_	1CM	.	voice	.	40.515	C:maj
4c	_	.	.	.	.	.	.
4r	.	.	.	.	.	.	.
8c	'cause	.	.	.	.	.	.
8c	to-	.	.	.	.	.	.
=25	=25	=25	=25	=25	=25	=25	=25
4f	-night	1Fm	newline	voice	.	42.279	F:min
2f	for	.	.	.	.	.	.
8f	the	.	.	.	.	.	.
[8a-	first	.	.	.	.	.	.
=26	=26	=26	=26	=26	=26	=26	=26
8a-]	_	1Fm	.	voice	.	44.028	F:min
8f	time	.	.	.	.	.	.
[4a-	_	.	.	.	.	.	.
4a-]	_	.	.	.	.	.	.
4r	.	.	.	.	.	.	.
=27	=27	=27	=27	=27	=27	=27	=27
8b-	just	1B-mm	.	voice	.	45.778	B-:min7
8b-	a-	.	.	.	.	.	.
4b-	-bout	.	.	.	.	.	.
4cc	half	.	.	.	.	.	.
4b-	past	.	.	.	.	.	.
=28	=28	=28	=28	=28	=28	=28	=28
2a-	ten	1B-mm	.	voice	B	47.527	B-:min7
4r	.	.	.	.	.	.	.
8cc	For	.	.	.	.	.	.
8cc	the	.	.	.	.	.	.
=29	=29	=29	=29	=29	=29	=29	=29
4cc	first	1Cm	newline	voice	.	49.277	C:sus4
4.cc	time	.	.	.	.	.	.
8r	.	.	.	.	.	.	.
8cc	in	.	.	.	.	.	.
[8cc	his-	.	.	.	.	.	.
=30	=30	=30	=30	=30	=30	=30	=30
8cc]	_	1CM	.	voice	.	51.043	C:maj
4cc	-to-	.	.	.	.	.	.
[8cc	-ry	.	.	.	.	.	.
8cc]	_	.	.	.	.	.	.
8r	.	.	.	.	.	.	.
8r	.	.	.	.	.	.	.
8cc	It's	.	.	.	.	.	.
=31	=31	=31	=31	=31	=31	=31	=31
8cc	gon-	1Cm	.	voice	.	52.81	C:sus4
8cc	-na	.	.	.	.	.	.
4cc	start	.	.	.	.	.	.
4cc	rai-	.	.	.	.	.	.
8cc	-ning	.	.	.	.	.	.
[8cc	men	.	.	.	B	.	.
=32	=32	=32	=32	=32	=32	=32	=32
1cc]	_	1CM	.	voice	.	54.576	C:maj
=33	=33	=33	=33	=33	=33	=33	=33
4r	.	1CM	newline	voice	.	56.343	C:maj
4cc	It's	.	.	.	.	.	.
4cc	rai-	.	.	.	.	.	.
8b-	-ning	.	.	.	.	.	.
[8a-	men	.	.	.	B	.	.
=34	=34	=34	=34	=34	=34	=34	=34
*>Letter>C	*>Letter>C	*>Letter>C	*>Letter>C	*>Letter>C	*>Letter>C	*>Letter>C	*>Letter>C
*>Label>Chorus	*>Label>Chorus	*>Label>Chorus	*>Label>Chorus	*>Label>Chorus	*>Label>Chorus	*>Label>Chorus	*>Label>Chorus
4a-]	_	1D-M	newline	voice	.	58.126	D-:maj
4r	.	.	.	.	.	.	.
8r	.	.	.	.	.	.	.
8a-	Hal-	.	.	.	.	.	.
8a-	-le-	.	.	.	.	.	.
[8a-	-lu	.	.	.	.	.	.
=35	=35	=35	=35	=35	=35	=35	=35
8a-]	_	1E-M	.	voice	.	59.876	E-:maj
8g	jah	.	.	.	.	.	.
4g	it's	.	.	.	.	.	.
4g	rai-	.	.	.	.	.	.
8g	-ning	.	.	.	.	.	.
[8g	men	.	.	.	B	.	.
=36	=36	=36	=36	=36	=36	=36	=36
4g]	_	1CM	.	voice	.	61.626	C:maj
4r	.	.	.	.	.	.	.
8r	.	.	.	.	.	.	.
[8b-	A-	.	.	.	.	.	.
8b-]	_	.	.	.	.	.	.
8b-	-men	.	.	.	B	.	.
=37	=37	=37	=37	=37	=37	=37	=37
4a-	_	1Fm	.	voice	.	63.376	F:min
4r	.	.	.	.	.	.	.
8r	.	.	.	.	.	.	.
8B-	I'm	.	.	.	.	.	.
8B-	gon-	.	.	.	.	.	.
8A-	-na	.	.	.	.	.	.
=38	=38	=38	=38	=38	=38	=38	=38
4B-	go	1D-M	newline	voice	.	65.126	D-:maj
4B-	out	.	.	.	.	.	.
8r	.	.	.	.	.	.	.
8A-	to	.	.	.	.	.	.
8B-	run	.	.	.	.	.	.
8A-	and	.	.	.	.	.	.
=39	=39	=39	=39	=39	=39	=39	=39
8B-	let	1B-m	.	voice	.	66.902	B-:min
8A-	my-	.	.	.	.	.	.
4B-	-self	.	.	.	.	.	.
4B-	get	.	.	.	C	.	.
4r	.	.	.	.	.	.	.
=40	=40	=40	=40	=40	=40	=40	=40
4c	Ab-	1B-m	.	voice	.	68.678	B-:min/2
8c	-so-	.	.	.	.	.	.
[8e	-lute-	.	.	.	.	.	.
8e]	_	.	.	.	.	.	.
4e	-ly	.	.	.	.	.	.
[8g	soak-	.	.	.	.	.	.
=41	=41	=41	=41	=41	=41	=41	=41
8g]	_	1CMm	.	voice	.	70.454	C:7
4g	-ing	.	.	.	.	.	.
[8b-	wet!	.	.	.	C	.	.
2b-]	_	.	.	.	.	.	.
=42	=42	=42	=42	=42	=42	=42	=42
4r	.	1CMm	.	voice	.	72.23	C:7
4c	It's	.	.	.	.	.	.
4f	rai-	.	.	.	.	.	.
8g	-ning	.	.	.	.	.	.
[8a-	men	.	.	.	B	.	.
=43	=43	=43	=43	=43	=43	=43	=43
4a-]	_	1D-M	newline	voice	.	74.006	D-:maj
4r	.	.	.	.	.	.	.
8r	.	.	.	.	.	.	.
8a-	Hal-	.	.	.	.	.	.
8a-	-le-	.	.	.	.	.	.
[8a-	-lu	.	.	.	.	.	.
=44	=44	=44	=44	=44	=44	=44	=44
8a-]	_	1E-M	.	voice	.	75.742	E-:maj
8g	jah	.	.	.	.	.	.
4g	it's	.	.	.	.	.	.
4g	rai-	.	.	.	.	.	.
8g	-ning	.	.	.	.	.	.
[8g	men	.	.	.	B	.	.
=45	=45	=45	=45	=45	=45	=45	=45
4g]	_	1CM	.	voice	.	77.479	C:maj
4r	.	.	.	.	.	.	.
8r	.	.	.	.	.	.	.
8f	Eve-	.	.	.	.	.	.
8g	-ry	.	.	.	.	.	.
[8a-	Spe-	.	.	.	.	.	.
=46	=46	=46	=46	=46	=46	=46	=46
8a-]	_	1Fm	.	voice	.	79.215	F:min
4g	-ci-	.	.	.	.	.	.
[8f	-men!	.	.	.	B	.	.
8f]	_	.	.	.	.	.	.
8a-	_	.	.	.	.	.	.
4r	.	.	.	.	.	.	.
=47	=47	=47	=47	=47	=47	=47	=47
4cc	Tall,	1D-M	newline	voice	.	80.951	D-:maj
4r	.	.	.	.	.	.	.
4cc	blonde,	.	.	.	.	.	.
4r	.	.	.	.	.	.	.
=48	=48	=48	=48	=48	=48	=48	=48
4cc	dark	1B-m	.	voice	.	82.72	B-:min
8b-	and	.	.	.	.	.	.
[8cc	lean	.	.	.	D	.	.
4cc]	_	.	.	.	.	.	.
4r	.	.	.	.	.	.	.
=49	=49	=49	=49	=49	=49	=49	=49
4e	Rough	1B-m	.	voice	.	84.488	B-:min/2
8e	and	.	.	.	.	.	.
[8g	tough	.	.	.	.	.	.
8g]	_	.	.	.	.	.	.
4g	and	.	.	.	.	.	.
[8b-	strong	.	.	.	.	.	.
=50	=50	=50	=50	=50	=50	=50	=50
8b-]	_	1CMm	.	voice	.	86.256	C:7
4b-	and	.	.	.	.	.	.
[8cc	mean	.	.	.	D	.	.
2cc_	_	.	.	.	.	.	.
=51	=51	=51	=51	=51	=51	=51	=51
2.cc]	_	1CMm	.	voice	.	88.025	C:7
4r	.	.	.	.	.	.	.
=52	=52	=52	=52	=52	=52	=52	=52
*>Letter>D	*>Letter>D	*>Letter>D	*>Letter>D	*>Letter>D	*>Letter>D	*>Letter>D	*>Letter>D
*>Label>Bridge	*>Label>Bridge	*>Label>Bridge	*>Label>Bridge	*>Label>Bridge	*>Label>Bridge	*>Label>Bridge	*>Label>Bridge
4cc	God	1D-M	newline	voice	.	89.793	D-:maj
4cc	bless	.	.	.	.	.	.
8cc	Mot-	.	.	.	.	.	.
4cc	-her	.	.	.	.	.	.
[8cc	Nat-	.	.	.	.	.	.
=53	=53	=53	=53	=53	=53	=53	=53
8cc]	_	1E-M	.	voice	.	91.557	E-:maj
4.b-	-ure	.	.	.	.	.	.
2r	.	.	.	.	.	.	.
=54	=54	=54	=54	=54	=54	=54	=54
4r	.	1CM	.	voice	.	93.321	C:maj
8cc	she's	.	.	.	.	.	.
8cc	a	.	.	.	.	.	.
4cc	sin-	.	.	.	.	.	.
8cc	-gle	.	.	.	.	.	.
[8ff	wo-	.	.	.	.	.	.
=55	=55	=55	=55	=55	=55	=55	=55
8ff]	_	1Fm	.	voice	.	95.085	F:min
4cc	-man	.	.	.	B	.	.
[8b-	too	.	.	.	E	.	.
8b-]	_	.	.	.	.	.	.
4a-	_	.	.	.	.	.	.
8r	.	.	.	.	.	.	.
=56	=56	=56	=56	=56	=56	=56	=56
4r	.	1D-M	newline	voice	.	96.85	D-:maj
8cc	She	.	.	.	.	.	.
8cc	took	.	.	.	.	.	.
8r	.	.	.	.	.	.	.
8cc	off	.	.	.	.	.	.
8cc	to	.	.	.	.	.	.
[8cc	hea-	.	.	.	.	.	.
=57	=57	=57	=57	=57	=57	=57	=57
8cc]	_	1E-M	.	voice	.	98.613	E-:maj
[4.b-	-ven	.	.	.	B	.	.
4b-]	_	.	.	.	.	.	.
4r	.	.	.	.	.	.	.
=58	=58	=58	=58	=58	=58	=58	=58
8b-	and	1CM	.	voice	.	100.377	C:maj
8a-	she	.	.	.	.	.	.
4b-	did	.	.	.	.	.	.
4b-	what	.	.	.	.	.	.
4a-	she	.	.	.	.	.	.
=59	=59	=59	=59	=59	=59	=59	=59
4cc	had	1Fm	.	voice	.	102.141	F:min
4b-	to	.	.	.	.	.	.
4a-	do	.	.	.	E	.	.
4f	_	.	.	.	.	.	.
=60	=60	=60	=60	=60	=60	=60	=60
4r	.	1D-M	newline	voice	.	103.904	D-:maj
8cc	She	.	.	.	.	.	.
8cc	taught	.	.	.	.	.	.
8r	.	.	.	.	.	.	.
8cc	eve-	.	.	.	.	.	.
8cc	-ry	.	.	.	.	.	.
[8cc	an-	.	.	.	F	.	.
=61	=61	=61	=61	=61	=61	=61	=61
8cc]	_	1E-M	.	voice	.	105.663	E-:maj
[4.b-	-gel	.	.	.	.	.	.
4b-]	_	.	.	.	.	.	.
4r	.	.	.	.	.	.	.
=62	=62	=62	=62	=62	=62	=62	=62
4cc	She	1CM	.	voice	.	107.421	C:maj
8cc	re-	.	.	.	.	.	.
8dd-	-ar-	.	.	.	.	.	.
4cc	-range	.	.	.	F	.	.
8b-	the	.	.	.	.	.	.
[8a-	sky	.	.	.	G	.	.
=63	=63	=63	=63	=63	=63	=63	=63
8a-]	_	1Fm	.	voice	.	109.179	F:min
8r	.	.	.	.	.	.	.
4r	.	.	.	.	.	.	.
8r	.	.	.	.	.	.	.
8f	so	.	.	.	.	.	.
8g	that	.	.	.	.	.	.
8a-	each	.	.	.	.	.	.
=64	=64	=64	=64	=64	=64	=64	=64
8r	.	2B-m	newline	voice	.	110.938	B-:min
8a-	and	.	.	.	.	.	.
8r	.	.	.	.	.	.	.
8a-	eve-	.	.	.	.	.	.
8r	.	2Fm	.	voice	.	111.815	F:min/5
8a-	-ry	.	.	.	.	.	.
8r	.	.	.	.	.	.	.
8cc	wo	.	.	.	.	.	.
=65	=65	=65	=65	=65	=65	=65	=65
8a-	_	2D-M	.	voice	.	112.692	D-:maj
8b-	man	.	.	.	B	.	.
4a-	_	.	.	.	.	.	.
4r	.	2Ddm	.	voice	.	113.569	D:hdim7
8r	.	.	.	.	.	.	.
8f	could	.	.	.	.	.	.
=66	=66	=66	=66	=66	=66	=66	=66
4cc	find	2CM	.	voice	.	114.447	C:maj/3
8cc	her	.	.	.	.	.	.
[8cc	per-	.	.	.	.	.	.
8cc]	_	2Fm	.	voice	.	115.324	F:min
4cc	-fect	.	.	.	.	.	.
[8cc	guy	.	.	.	G	.	.
=67	=67	=67	=67	=67	=67	=67	=67
1cc_	_	2CM	.	voice	.	116.201	C:maj/5
.	.	2Fm	.	voice	.	117.079	F:min/b3
=68	=68	=68	=68	=68	=68	=68	=68
1cc]	_	1Cm	newline	voice	.	117.956	C:sus4
=69	=69	=69	=69	=69	=69	=69	=69
4r	.	1CM	.	voice	.	119.745	C:maj
8cc	Ooh	.	.	.	.	.	.
8a-	it's	.	.	.	.	.	.
8b-	rai-	.	.	.	.	.	.
8b-	-ning	.	.	.	.	.	.
8a-	men	.	.	.	B	.	.
8r	.	.	.	.	.	.	.
=70	=70	=70	=70	=70	=70	=70	=70
2.f	yeah	1Fm	newline	voice	.	121.535	F:min
4r	.	.	.	.	.	.	.
=71	=71	=71	=71	=71	=71	=71	=71
2r	.	1Fm	.	voice	.	123.27	F:min
4r	.	.	.	.	.	.	.
8r	.	.	.	.	.	.	.
8F	Hu-	.	.	.	.	.	.
=72	=72	=72	=72	=72	=72	=72	=72
*>Letter>B2	*>Letter>B2	*>Letter>B2	*>Letter>B2	*>Letter>B2	*>Letter>B2	*>Letter>B2	*>Letter>B2
*>Label>Verse	*>Label>Verse	*>Label>Verse	*>Label>Verse	*>Label>Verse	*>Label>Verse	*>Label>Verse	*>Label>Verse
16F	-mi-	1Fm	newline	voice	.	125.005	F:min
16F	-di-	.	.	.	.	.	.
8F	-ty	.	.	.	.	.	.
8F	is	.	.	.	.	.	.
[8A-	ri-	.	.	.	.	.	.
8A-]	_	.	.	.	.	.	.
[4.F	-sing	.	.	.	.	.	.
=73	=73	=73	=73	=73	=73	=73	=73
2F]	_	1Fm	.	voice	.	126.783	F:min
2r	.	.	.	.	.	.	.
=74	=74	=74	=74	=74	=74	=74	=74
1r	.	1Fm	.	voice	.	128.561	F:min
=75	=75	=75	=75	=75	=75	=75	=75
1r	.	1Fm	.	voice	.	130.34	F:min
=76	=76	=76	=76	=76	=76	=76	=76
24c	Ba-	1Fm	newline	voice	.	132.118	F:min
24c	-ro-	.	.	.	.	.	.
24c	-me-	.	.	.	.	.	.
8c	-ter's	.	.	.	.	.	.
16c	get-	.	.	.	.	.	.
8.c	-ting	.	.	.	.	.	.
8d-	low	.	.	.	A	.	.
[8c	_	.	.	.	.	.	.
4c_	_	.	.	.	.	.	.
=77	=77	=77	=77	=77	=77	=77	=77
2c]	_	1Fm	.	voice	.	133.872	F:min
2r	.	.	.	.	.	.	.
=78	=78	=78	=78	=78	=78	=78	=78
1r	.	1Fm	.	voice	.	135.627	F:min
=79	=79	=79	=79	=79	=79	=79	=79
2r	.	1Fm	.	voice	.	137.381	F:min
4r	.	.	.	.	.	.	.
8r	.	.	.	.	.	.	.
8F	Ac-	.	.	.	.	.	.
=80	=80	=80	=80	=80	=80	=80	=80
8F	-cor-	1Fm	newline	voice	.	139.136	F:min
8F	-ding	.	.	.	.	.	.
8F	to	.	.	.	.	.	.
[8F	all	.	.	.	.	.	.
8F]	_	.	.	.	.	.	.
4A-	sour-	.	.	.	.	.	.
[8F	-ces	.	.	.	.	.	.
=81	=81	=81	=81	=81	=81	=81	=81
2F]	_	1Fm	.	voice	.	140.901	F:min
2r	.	.	.	.	.	.	.
=82	=82	=82	=82	=82	=82	=82	=82
1r	.	1Fm	.	voice	.	142.666	F:min
=83	=83	=83	=83	=83	=83	=83	=83
2r	.	1Fm	.	voice	.	144.431	F:min
4r	.	.	.	.	.	.	.
8r	.	.	.	.	.	.	.
8B-	the	.	.	.	.	.	.
=84	=84	=84	=84	=84	=84	=84	=84
4c	street's	1Cm	newline	voice	.	146.196	C:sus4
8c	the	.	.	.	.	.	.
[8e-	place	.	.	.	.	.	.
8e-]	_	.	.	.	.	.	.
4c	to	.	.	.	.	.	.
[8B-	go	.	.	.	A	.	.
=85	=85	=85	=85	=85	=85	=85	=85
4B-]	_	1CM	.	voice	.	147.944	C:maj
4c	_	.	.	.	.	.	.
4r	.	.	.	.	.	.	.
8f	'cause	.	.	.	.	.	.
8f	to-	.	.	.	.	.	.
=86	=86	=86	=86	=86	=86	=86	=86
4cc	-night	1Fm	newline	voice	.	149.692	F:min
2cc	for	.	.	.	.	.	.
8cc	the	.	.	.	.	.	.
[8ee-	first	.	.	.	.	.	.
=87	=87	=87	=87	=87	=87	=87	=87
8ee-]	_	1Fm	.	voice	.	151.471	F:min
4cc	time	.	.	.	.	.	.
[8f	_	.	.	.	.	.	.
4f]	_	.	.	.	.	.	.
4r	.	.	.	.	.	.	.
=88	=88	=88	=88	=88	=88	=88	=88
4cc	just	1B-mm	.	voice	.	153.25	B-:min7
8b-	a-	.	.	.	.	.	.
8a-	-bout	.	.	.	.	.	.
4cc	half	.	.	.	.	.	.
4b-	past	.	.	.	.	.	.
=89	=89	=89	=89	=89	=89	=89	=89
2a-	ten	1B-mm	.	voice	B	155.029	B-:min7
4r	.	.	.	.	.	.	.
8cc	For	.	.	.	.	.	.
8cc	the	.	.	.	.	.	.
=90	=90	=90	=90	=90	=90	=90	=90
4cc	first	1Cm	newline	voice	.	156.808	C:sus4
2cc	time	.	.	.	.	.	.
8cc	in	.	.	.	.	.	.
[8ee-	his-	.	.	.	.	.	.
=91	=91	=91	=91	=91	=91	=91	=91
8ee-]	_	1CM	.	voice	.	158.569	C:maj
4cc	-to-	.	.	.	.	.	.
[8cc	-ry	.	.	.	.	.	.
8cc]	_	.	.	.	.	.	.
8r	.	.	.	.	.	.	.
8r	.	.	.	.	.	.	.
8cc	It's	.	.	.	.	.	.
=92	=92	=92	=92	=92	=92	=92	=92
8cc	gon-	1Cm	.	voice	.	160.33	C:sus4
8cc	-na	.	.	.	.	.	.
4cc	start	.	.	.	.	.	.
8cc	rai-	.	.	.	.	.	.
4cc	-ning	.	.	.	.	.	.
[8ee	men	.	.	.	B	.	.
=93	=93	=93	=93	=93	=93	=93	=93
1ee]	_	1CM	.	voice	.	162.091	C:maj
=94	=94	=94	=94	=94	=94	=94	=94
1ff	_	1Cm	newline	voice	.	163.852	C:sus4
=95	=95	=95	=95	=95	=95	=95	=95
4r	.	1CM	.	voice	.	165.601	C:maj
4cc	It's	.	.	.	.	.	.
4cc	rai-	.	.	.	.	.	.
8cc	-ning	.	.	.	.	.	.
[8cc	men	.	.	.	B	.	.
=96	=96	=96	=96	=96	=96	=96	=96
*>Letter>C2	*>Letter>C2	*>Letter>C2	*>Letter>C2	*>Letter>C2	*>Letter>C2	*>Letter>C2	*>Letter>C2
*>Label>Outro	*>Label>Outro	*>Label>Outro	*>Label>Outro	*>Label>Outro	*>Label>Outro	*>Label>Outro	*>Label>Outro
4cc]	_	1D-M	newline	voice	.	167.35	D-:maj
4r	.	.	.	.	.	.	.
8r	.	.	.	.	.	.	.
8cc	Hal-	.	.	.	.	.	.
8cc	-le-	.	.	.	.	.	.
[8cc	-lu	.	.	.	.	.	.
=97	=97	=97	=97	=97	=97	=97	=97
8cc]	_	1E-M	.	voice	.	169.102	E-:maj
8b-	jah	.	.	.	.	.	.
4b-	it's	.	.	.	.	.	.
4b-	rai-	.	.	.	.	.	.
8b-	-ning	.	.	.	.	.	.
[8b-	men	.	.	.	B	.	.
=98	=98	=98	=98	=98	=98	=98	=98
4b-]	_	1CM	.	voice	.	170.854	C:maj
4r	.	.	.	.	.	.	.
8r	.	.	.	.	.	.	.
[8b-	A-	.	.	.	.	.	.
8b-]	_	.	.	.	.	.	.
[8cc	-men	.	.	.	B	.	.
=99	=99	=99	=99	=99	=99	=99	=99
8cc]	_	1Fm	.	voice	.	172.606	F:min
8r	.	.	.	.	.	.	.
4cc	It's	.	.	.	.	.	.
4ee-	rai-	.	.	.	.	.	.
8cc	-ning	.	.	.	.	.	.
[8b-	men	.	.	.	B	.	.
=100	=100	=100	=100	=100	=100	=100	=100
4a-	_	1D-M	newline	voice	.	174.358	D-:maj
4r	.	.	.	.	.	.	.
8r	.	.	.	.	.	.	.
8cc	Hal-	.	.	.	.	.	.
8cc	-le-	.	.	.	.	.	.
[8cc	-lu	.	.	.	.	.	.
=101	=101	=101	=101	=101	=101	=101	=101
8cc]	_	1E-M	.	voice	.	176.11	E-:maj
8b-]	jah	.	.	.	.	.	.
4g	it's	.	.	.	.	.	.
4g	rai-	.	.	.	.	.	.
8g	-ning	.	.	.	.	.	.
[8g	men	.	.	.	B	.	.
=102	=102	=102	=102	=102	=102	=102	=102
4g]	_	1CM	.	voice	.	177.862	C:maj
4r	.	.	.	.	.	.	.
8r	.	.	.	.	.	.	.
[8g	A-	.	.	.	.	.	.
8g]	_	.	.	.	.	.	.
[8a-	-men	.	.	.	B	.	.
=103	=103	=103	=103	=103	=103	=103	=103
8a-]	_	1Fm	.	voice	.	179.614	F:min
8r	.	.	.	.	.	.	.
4cc	It's	.	.	.	.	.	.
4b-	rai-	.	.	.	.	.	.
8cc	-ning	.	.	.	.	.	.
8b-	men	.	.	.	B	.	.
=104	=104	=104	=104	=104	=104	=104	=104
4a-	_	1D-M	newline	voice	.	181.366	D-:maj
4r	.	.	.	.	.	.	.
6r	.	.	.	.	.	.	.
6cc	Ha-	.	.	.	.	.	.
6cc	-le-	.	.	.	.	.	.
=105	=105	=105	=105	=105	=105	=105	=105
6dd-	-lu-	1E-M	.	voice	.	183.123	E-:maj
6cc	-jah!	.	.	.	.	.	.
[6cc	It's	.	.	.	.	.	.
8cc]	_	.	.	.	.	.	.
8cc	rai-	.	.	.	.	.	.
8b-	-ning	.	.	.	.	.	.
[8cc	men	.	.	.	B	.	.
=106	=106	=106	=106	=106	=106	=106	=106
8cc]	_	1CM	.	voice	.	184.88	C:maj
8r	.	.	.	.	.	.	.
4r	.	.	.	.	.	.	.
8r	.	.	.	.	.	.	.
[8b-	A-	.	.	.	.	.	.
8b-]	_	.	.	.	.	.	.
8a-	-men	.	.	.	B	.	.
=107	=107	=107	=107	=107	=107	=107	=107
8r	.	1Fm	.	voice	.	186.637	F:min
[8a-	It's	.	.	.	.	.	.
8a-]	_	.	.	.	.	.	.
4.cc	rai-	.	.	.	.	.	.
8b-	-ning	.	.	.	.	.	.
[8a-	men	.	.	.	B	.	.
=108	=108	=108	=108	=108	=108	=108	=108
4a-]	_	1D-M	newline	voice	.	188.394	D-:maj
4r	.	.	.	.	.	.	.
2r	.	.	.	.	.	.	.
=109	=109	=109	=109	=109	=109	=109	=109
1r	.	1E-M	.	voice	.	190.163	E-:maj
=110	=110	=110	=110	=110	=110	=110	=110
1r	.	1CM	.	voice	.	191.932	C:maj
=111	=111	=111	=111	=111	=111	=111	=111
1r	.	1Fm	.	voice	.	193.701	F:min
=112	=112	=112	=112	=112	=112	=112	=112
*>Label>>Fadeout	*>Label>>Fadeout	*>Label>>Fadeout	*>Label>>Fadeout	*>Label>>Fadeout	*>Label>>Fadeout	*>Label>>Fadeout	*>Label>>Fadeout
4cc	Tall,	1D-M	newline	voice	.	195.469	D-:maj
4r	.	.	.	.	.	.	.
4cc	blonde,	.	.	.	.	.	.
4r	.	.	.	.	.	.	.
=113	=113	=113	=113	=113	=113	=113	=113
4cc	dark	1E-M	.	voice	.	197.237	E-:maj
8b-	and	.	.	.	.	.	.
[8cc	lean	.	.	.	D	.	.
4cc]	_	.	.	.	.	.	.
4r	.	.	.	.	.	.	.
=114	=114	=114	=114	=114	=114	=114	=114
4cc	Rough	1CM	.	voice	.	199.004	C:maj
8cc	and	.	.	.	.	.	.
[8cc	tough	.	.	.	.	.	.
8cc]	_	.	.	.	.	.	.
4cc	and	.	.	.	.	.	.
[8ff	strong	.	.	.	.	.	.
=115	=115	=115	=115	=115	=115	=115	=115
8ff]	_	1Fm	.	voice	.	200.772	F:min
4ff	and	.	.	.	.	.	.
[8ff	mean	.	.	.	D	.	.
2ff]	_	.	.	.	.	.	.
=116	=116	=116	=116	=116	=116	=116	=116
1r	.	1D-M	newline	voice	.	202.539	D-:maj
=117	=117	=117	=117	=117	=117	=117	=117
1r	.	1E-M	.	voice	.	204.208	E-:maj
=118	=118	=118	=118	=118	=118	=118	=118
1r	.	1CM	.	voice	.	205.877	C:maj
=119	=119	=119	=119	=119	=119	=119	=119
1r	.	1Fm	.	voice	.	207.546	F:min
r;	.	1r;	.	r	.	209.215	N.C.
*-	*-	*-	*-	*-	*-	*-	*-
!!!BillboardChartDate: 1983/01/29
!!!BillboardPeak: 46
!!!BillboardWeeksOnChart: 11
!!!COC: The Weather Girls
!!!EMD: Section labels seem weird... -Nat
!!!ENC: Nathaniel Condit-Schultz
!!!EST: Awating manual error checking and editing.
!!!OTL: It's Raining Men
!!!RDF**chordsym: original McGill chord annotation + (implied pitch class set, with bass pitch in first position)
!!!RDF**harmony: **recip + pitch class of root + harmonic quality
!!!RDF**leadinstrument: original McGill primary instrumentation annotation
!!!RDF**phrase: newline = linebreak in original McGill transcription
!!!RDF**timestamp: McGill audio timestamp in seconds
!!!RDT: 2017/01/12/
!!!SampleActualRank: 78
!!!SampleID#: 0651
!!!SampleTargetRank: 80
